src/pages/assets/icons/twitch.svg

<svg width="24" height="24" xmlns="http://www.w3.org/2000/svg">
 <title>Twitch icon</title>

 <g>
  <title>background</title>
  <rect fill="none" id="canvas_background" height="402" width="582" y="-1" x="-1"/>
 </g>
 <g>
  <title>Layer 1</title>
  <path fill="white" id="svg_1" d="m2.089,0l-1.564,4.175l0,16.694l5.736,0l0,3.131l3.132,0l3.127,-3.132l4.695,0l6.26,-6.258l0,-14.61l-21.386,0zm2.086,2.085l17.215,0l0,11.479l-3.652,3.652l-5.738,0l-3.127,3.127l0,-3.127l-4.698,0l0,-15.131z"/>
  <path fill="white" id="svg_2" d="m9.915,12.522l2.085,0l0,-6.26l-2.085,0l0,6.26zm5.735,0l2.086,0l0,-6.26l-2.086,0l0,6.26z"/>
 </g>
</svg>

<svg aria-labelledby="simpleicons-twitch-icon" role="img" viewBox="0 0 24 24" xmlns="http://www.w3.org/2000/svg"><title id="simpleicons-twitch-icon">Twitch icon</title><path d="M2.089 0L.525 4.175v16.694h5.736V24h3.132l3.127-3.132h4.695l6.26-6.258V0H2.089zm2.086 2.085H21.39v11.479l-3.652 3.652H12l-3.127 3.127v-3.127H4.175V2.085z"/><path d="M9.915 12.522H12v-6.26H9.915v6.26zm5.735 0h2.086v-6.26H15.65v6.26z"/></svg>
